Numix/64/mimetypes/text-x-dsrc.svg

<?xml version="1.0" encoding="UTF-8" standalone="no"?>
<svg
   xmlns:dc="http://purl.org/dc/elements/1.1/"
   xmlns:cc="http://creativecommons.org/ns#"
   xmlns:rdf="http://www.w3.org/1999/02/22-rdf-syntax-ns#"
   xmlns:svg="http://www.w3.org/2000/svg"
   xmlns="http://www.w3.org/2000/svg"
   xmlns:sodipodi="http://sodipodi.sourceforge.net/DTD/sodipodi-0.dtd"
   xmlns:inkscape="http://www.inkscape.org/namespaces/inkscape"
   width="64px"
   height="64px"
   viewBox="0 0 64 64"
   version="1.1"
   id="svg2"
   inkscape:version="0.91 r13725"
   sodipodi:docname="text-x-dsrc.svg">
  <metadata
     id="metadata15">
    <rdf:RDF>
      <cc:Work
         rdf:about="">
        <dc:format>image/svg+xml</dc:format>
        <dc:type
           rdf:resource="http://purl.org/dc/dcmitype/StillImage" />
        <dc:title />
      </cc:Work>
    </rdf:RDF>
  </metadata>
  <defs
     id="defs13">
    <clipPath
       id="clipPath-889157936">
      <g
         transform="translate(0,-1004.3622)"
         id="g17">
        <path
           style="fill:#1890d0"
           inkscape:connector-curvature="0"
           d="m -24,13 c 0,1.105 -0.672,2 -1.5,2 -0.828,0 -1.5,-0.895 -1.5,-2 0,-1.105 0.672,-2 1.5,-2 0.828,0 1.5,0.895 1.5,2 z"
           transform="matrix(15.333333,0,0,11.5,414.99999,878.8622)"
           id="path19" />
      </g>
    </clipPath>
  </defs>
  <sodipodi:namedview
     pagecolor="#ffffff"
     bordercolor="#666666"
     borderopacity="1"
     objecttolerance="10"
     gridtolerance="10"
     guidetolerance="10"
     inkscape:pageopacity="0"
     inkscape:pageshadow="2"
     inkscape:window-width="1366"
     inkscape:window-height="713"
     id="namedview11"
     showgrid="false"
     inkscape:zoom="4"
     inkscape:cx="17.349237"
     inkscape:cy="22.206645"
     inkscape:window-x="0"
     inkscape:window-y="28"
     inkscape:window-maximized="1"
     inkscape:current-layer="svg2">
    <inkscape:grid
       type="xygrid"
       id="grid3019" />
  </sodipodi:namedview>
  <path
     style="fill:#2d2d2d;fill-opacity:1"
     d="M 10.671721,0.00190094 C 9.2968016,0.00193117 8,1.3548555 8,2.7893139 L 8,61.212592 C 8,62.565543 9.3749199,64 10.671721,64 l 42.653794,0 c 1.296802,0 2.671721,-1.434457 2.671721,-2.787408 L 55.99902,18.000939 37.999388,0.0013069 z"
     id="path4-1"
     inkscape:connector-curvature="0"
     sodipodi:nodetypes="ssssssccs" />
  <path
     style="fill:#000000;fill-opacity:0.19599998"
     d="m 41.999306,18.000939 13.999714,13.999714 0,-13.999714 z"
     id="path6-4"
     inkscape:connector-curvature="0"
     sodipodi:nodetypes="cccc" />
  <path
     style="fill:#ffffff;fill-opacity:0.39200003"
     d="m 38,0.00190094 17.98282,17.99903806 -15.226213,0 C 39.410732,18.000939 38,16.57399 38,15.228116 z"
     id="path8-6"
     inkscape:connector-curvature="0"
     sodipodi:nodetypes="ccssc" />
  <g
     id="g53"
     clip-path="url(#clipPath-889157936)"
     transform="matrix(1.3333062,0,0,1.3333062,1.6336238e-4,3.9985596)">
    <!-- color: #aade54 -->
    <g
       id="g55" />
  </g>
  <path
     d="M 44,37 C 44,47.662912 37.204502,52 31.999996,52 L 20,52 20,22 31.999998,22 C 37.204502,22 44,26.337088 44,37 Z m -6,0 c 0,-6 -3.000002,-8.999998 -8.000002,-8.999998 L 26,28.000002 26,46 29.999998,46 C 34.999998,46 38,43 38,37 Z"
     style="font-style:normal;font-variant:normal;font-weight:bold;font-stretch:normal;font-size:12.30313683px;line-height:125%;font-family:'Open Sans';-inkscape-font-specification:'Open Sans Bold';letter-spacing:0px;word-spacing:0px;fill:#dcdcdc;fill-opacity:1;stroke:none;stroke-width:1px;stroke-linecap:butt;stroke-linejoin:miter;stroke-opacity:1"
     id="path4161"
     inkscape:connector-curvature="0"
     sodipodi:nodetypes="zcccczzsccsz" />
</svg>

<svg xmlns="http://www.w3.org/2000/svg" viewBox="0 0 64 64">
 <defs>
  
 </defs>
 <path d="m 10.672 0.002 c -1.375 0 -2.672 1.353 -2.672 2.787 l 0 58.42 c 0 1.353 1.375 2.787 2.672 2.787 l 42.654 0 c 1.297 0 2.672 -1.434 2.672 -2.787 l 0.002 -43.21 -18 -18 z" style="fill:#2d2d2d;fill-opacity:1"/>
 <path d="m 41.999 18 14 14 0 -14 z" style="fill:#000;fill-opacity:0.196"/>
 <path d="m 38 0.002 17.983 17.999 -15.226 0 c -1.346 0 -2.757 -1.427 -2.757 -2.773 z" style="fill:#fff;fill-opacity:0.392"/>
 <g transform="matrix(1.3333062,0,0,1.3333062,1.6336238e-4,3.9985596)" style="clip-path:url(#clipPath-889157936)">
  <!-- color: #aade54 -->
 </g>
 <path d="m 44 37 c 0 10.663 -6.795 15 -12 15 l -12 0 0 -30 12 0 c 5.205 0 12 4.337 12 15 m -6 0 c 0 -6 -3 -9 -8 -9 l -4 0 0 18 4 0 c 5 0 8 -3 8 -9" style="fill:#dcdcdc;fill-opacity:1;stroke:none"/>
</svg>
